2021/1/cappadocia/images/arrow-right.svg

<svg width="38" height="70" viewBox="0 0 38 70" fill="none" xmlns="http://www.w3.org/2000/svg">
<path d="M36.9182 33.6045L3.89675 0.583119C3.11925 -0.194373 1.87233 -0.194373 1.09484 0.583119C0.317346 1.36061 0.317346 2.60753 1.09484 3.38503L32.708 34.9982L1.09484 66.6113C0.317346 67.3888 0.317346 68.6357 1.09484 69.4132C1.47625 69.7946 1.98969 70 2.48846 70C2.98723 70 3.50067 69.8093 3.88208 69.4132L36.9035 36.3918C37.681 35.629 37.681 34.3674 36.9182 33.6045Z" fill="white"/>
</svg>

<svg width="38" height="70" fill="none" xmlns="http://www.w3.org/2000/svg"><path d="M36.918 33.605L3.897.583a1.974 1.974 0 00-2.802 0 1.974 1.974 0 000 2.802l31.613 31.613L1.095 66.611a1.974 1.974 0 000 2.802c.381.382.895.587 1.393.587.5 0 1.013-.19 1.394-.587l33.021-33.021a1.97 1.97 0 00.015-2.788z" fill="#fff"/></svg>
